X:3039
T:Church Street
M:2/4
L:1/8
K:G Major
BG D3/D/|Ec cA/B/|cE FE|Dd/c/ d/e/d/c/|!
BG D3/D/|Ec cA/B/|c/B/A/G/ F/D/E/F/|GB G2:|!
g2 f2|c2-cc/d/|e3/f/ ed|B2-BB/c/|!
d3/e/ d/c/B|A2-AB/A/|[1 GA Bc|d2-de/f/:|[2 Gg fa|g2 g2|]!


